svg/rotate_right.svg

<svg xmlns="http://www.w3.org/2000/svg" viewBox="0 0 32 32" enable-background="new 0 0 32 32"><path d="M 16 3 L 16 5 L 17 5 L 17 3 L 16 3 z M 19.15625 3.4375 L 18.59375 5.34375 L 19.375 5.5625 L 19.4375 5.59375 L 20.125 5.84375 L 20.1875 5.875 L 20.21875 5.875 L 21.0625 4.0625 L 20.96875 4.03125 L 20.9375 4 L 20.90625 4 L 20.0625 3.6875 L 20.03125 3.6875 L 20 3.65625 L 19.15625 3.4375 z M 4 4 L 4 6 L 7.65625 6 C 4.7951543 8.3854935 3 11.941019 3 16 C 3 23.145455 8.8545455 29 16 29 C 23.145455 29 29 23.145455 29 16 L 29 15 L 27 15 L 27 16 C 27 22.054545 22.054545 27 16 27 C 9.9454545 27 5 22.054545 5 16 C 5 12.060564 6.9705352 8.7614222 10 6.78125 L 10 12 L 12 12 L 12 5 L 12 4 L 11 4 L 4 4 z M 22.84375 5 L 21.78125 6.6875 L 22.25 7 L 22.3125 7.03125 L 22.875 7.46875 L 22.9375 7.5 L 23.15625 7.6875 L 24.46875 6.1875 L 24.1875 5.9375 L 24.15625 5.9375 L 24.125 5.90625 L 23.4375 5.375 L 23.40625 5.375 L 23.375 5.34375 L 22.84375 5 z M 25.90625 7.59375 L 24.375 8.90625 L 24.59375 9.15625 L 24.625 9.1875 L 25.0625 9.78125 L 25.125 9.84375 L 25.40625 10.3125 L 27.09375 9.21875 L 26.75 8.6875 L 26.71875 8.65625 L 26.71875 8.625 L 26.1875 7.9375 L 26.15625 7.90625 L 26.125 7.875 L 25.90625 7.59375 z M 28.03125 11 L 26.21875 11.84375 L 26.21875 11.875 L 26.25 11.9375 L 26.5 12.625 L 26.53125 12.6875 L 26.75 13.46875 L 28.65625 12.9375 L 28.4375 12.09375 L 28.40625 12.03125 L 28.40625 12 L 28.09375 11.1875 L 28.09375 11.15625 L 28.0625 11.125 L 28.03125 11 z"/></svg>

<svg xmlns="http://www.w3.org/2000/svg" viewBox="0 0 32 32"><path style="text-indent:0;text-align:start;line-height:normal;text-transform:none;block-progression:tb;-inkscape-font-specification:Bitstream Vera Sans" d="M16 3v2h1V3h-1zm3.156.438l-.562 1.906.78.218.064.032.687.25.063.03h.03l.845-1.81-.094-.033-.032-.03h-.032l-.843-.313h-.032l-.03-.03-.844-.22zM4 4v2h3.656C4.796 8.385 3 11.94 3 16c0 7.145 5.855 13 13 13s13-5.855 13-13v-1h-2v1c0 6.055-4.945 11-11 11S5 22.055 5 16c0-3.94 1.97-7.24 5-9.22V12h2V4H4zm18.844 1L21.78 6.688l.47.312.063.03.562.44.063.03.218.188 1.313-1.5-.282-.25h-.032l-.03-.032-.69-.53h-.03l-.03-.032L22.843 5zm3.062 2.594l-1.53 1.312.218.25.03.03.44.595.06.064.282.47 1.688-1.095-.344-.533-.03-.03v-.032l-.532-.688-.032-.03-.03-.032-.22-.28zM28.03 11l-1.81.844v.03l.03.063.25.688.03.063.22.78 1.906-.53-.218-.844-.032-.063V12l-.312-.813v-.03l-.032-.032-.03-.125z"/></svg>
